icons/Messages.svg

<svg width="24" height="24" viewBox="0 0 24 24" fill="none" xmlns="http://www.w3.org/2000/svg">
<g id="Messages">
<path id="Vector" d="M5.62988 18.72C5.6346 18.4861 5.55713 18.2579 5.41095 18.0751C5.26478 17.8924 5.05916 17.7668 4.82988 17.72C4.19764 17.5451 3.64017 17.1677 3.24283 16.6458C2.84549 16.1238 2.63018 15.486 2.62988 14.83V9C2.62988 8.20435 2.94595 7.44129 3.50856 6.87868C4.07117 6.31607 4.83423 6 5.62988 6H15.2299C16.0255 6 16.7886 6.31607 17.3512 6.87868C17.9138 7.44129 18.2299 8.20435 18.2299 9V14.86C18.2299 15.6556 17.9138 16.4187 17.3512 16.9813C16.7886 17.5439 16.0255 17.86 15.2299 17.86H10.0199C9.75754 17.8611 9.50614 17.9653 9.31988 18.15L6.47988 21C6.41202 21.0736 6.32321 21.1247 6.22543 21.1464C6.12765 21.168 6.02559 21.1592 5.93299 21.121C5.84038 21.0829 5.76169 21.0173 5.70749 20.9331C5.6533 20.8489 5.62622 20.7501 5.62988 20.65V18.72Z" stroke="#00153F" stroke-width="1.5" stroke-miterlimit="10"/>
<path id="Vector_2" d="M5.77002 5.99999V5.85999C5.77002 5.06434 6.08609 4.30127 6.6487 3.73867C7.21131 3.17606 7.97437 2.85999 8.77002 2.85999H18.37C19.1657 2.85999 19.9287 3.17606 20.4913 3.73867C21.0539 4.30127 21.37 5.06434 21.37 5.85999V11.71C21.37 12.5056 21.0539 13.2687 20.4913 13.8313C19.9287 14.3939 19.1657 14.71 18.37 14.71H18.23" stroke="#00153F" stroke-width="1.5" stroke-miterlimit="10"/>
<path id="Vector_3" d="M7.44995 11.85V11.851" stroke="#00153F" stroke-width="2" stroke-linecap="round" stroke-linejoin="round"/>
<path id="Vector_4" d="M10.45 11.85V11.851" stroke="#00153F" stroke-width="2" stroke-linecap="round" stroke-linejoin="round"/>
<path id="Vector_5" d="M13.45 11.85V11.851" stroke="#00153F" stroke-width="2" stroke-linecap="round" stroke-linejoin="round"/>
</g>
</svg>

<svg xmlns="http://www.w3.org/2000/svg" fill="none" viewBox="0 0 24 24"><g stroke="currentColor"><path stroke-miterlimit="10" stroke-width="1.5" d="M5.63 18.72a1 1 0 0 0-.8-1 3 3 0 0 1-2.2-2.89V9a3 3 0 0 1 3-3h9.6a3 3 0 0 1 3 3v5.86a3 3 0 0 1-3 3h-5.21a1 1 0 0 0-.7.29L6.48 21a.49.49 0 0 1-.85-.35v-1.93Z"/><path stroke-miterlimit="10" stroke-width="1.5" d="M5.77 6v-.14a3 3 0 0 1 3-3h9.6a3 3 0 0 1 3 3v5.85a3 3 0 0 1-3 3h-.14"/><path stroke-linecap="round" stroke-linejoin="round" stroke-width="2" d="M7.45 11.85v.001m3-.001v.001m3-.001v.001"/></g></svg>
